X: 38624
T: Stool Of Repentance, The
R: jig
M: 6/8
K: Amajor
e|:a2e c2e|a2f edc|aff f2e|faf f2e|
a2e c2e|a2f edc|d2e f2e|1 fac B2e:|2 fac B2A||
|:cAA eAA|cAA e2c|dBB fBB|dBB f2e|
cAA eAA|cAA e2c|d2e f2e|1 fac B2e:|2 fac B2e||

